modules/hawcons-filled/icons/icon-126-document-shred.svg

<svg width="32" height="32" viewBox="0 0 32 32" xmlns="http://www.w3.org/2000/svg"><path d="M27 20H6v2H5v-5h1v2h21v-2h1v5h-1v-2zM7 18V5.007C7 3.898 7.9 3 9.009 3H19v6.002c0 1.111.898 1.998 2.006 1.998H26v7H7zM20 3v5.997c0 .554.451 1.003.99 1.003H26l-6-7zm5 18v9h1v-9h-1zm-2 0v8h1v-8h-1zm-2 0v7h1v-7h-1zm-2 0v9h1v-9h-1zm-2 0v8h1v-8h-1zm-2 0v9h1v-9h-1zm-2 0v7h1v-7h-1zm-2 0v9h1v-9h-1zm-2 0v8h1v-8H9zm-2 0v9h1v-9H7z" fill="#929292" fill-rule="evenodd"/></svg>

<?xml version="1.0" encoding="UTF-8" standalone="no"?>
<svg width="32px" height="32px" viewBox="0 0 32 32" version="1.1" xmlns="http://www.w3.org/2000/svg" xmlns:xlink="http://www.w3.org/1999/xlink" xmlns:sketch="http://www.bohemiancoding.com/sketch/ns">
    <!-- Generator: Sketch 3.0.3 (7891) - http://www.bohemiancoding.com/sketch -->
    <title>icon 126 document shred</title>
    <desc>Created with Sketch.</desc>
    <defs></defs>
    <g id="Page-1" stroke="none" stroke-width="1" fill="none" fill-rule="evenodd" sketch:type="MSPage">
        <g id="icon-126-document-shred" sketch:type="MSArtboardGroup" fill="#929292">
            <path d="M27,20 L6,20 L6,22 L5,22 L5,17 L6,17 L6,19 L27,19 L27,17 L28,17 L28,22 L27,22 L27,20 L27,20 Z M7,18 L7,5.00732994 C7,3.89833832 7.8992496,3 9.0085302,3 L19,3 L19,9.00189865 C19,10.1132936 19.8980806,11 21.0059191,11 L26,11 L26,18 L7,18 L7,18 L7,18 Z M20,3 L20,8.99707067 C20,9.55097324 20.4509752,10 20.990778,10 L26,10 L20,3 L20,3 Z M25,21 L25,30 L26,30 L26,21 L25,21 L25,21 Z M23,21 L23,29 L24,29 L24,21 L23,21 L23,21 Z M21,21 L21,28 L22,28 L22,21 L21,21 L21,21 Z M19,21 L19,30 L20,30 L20,21 L19,21 L19,21 Z M17,21 L17,29 L18,29 L18,21 L17,21 L17,21 Z M15,21 L15,30 L16,30 L16,21 L15,21 L15,21 Z M13,21 L13,28 L14,28 L14,21 L13,21 L13,21 Z M11,21 L11,30 L12,30 L12,21 L11,21 L11,21 Z M9,21 L9,29 L10,29 L10,21 L9,21 L9,21 Z M7,21 L7,30 L8,30 L8,21 L7,21 L7,21 Z" id="document-shred" sketch:type="MSShapeGroup"></path>
        </g>
    </g>
</svg>
